X:920
T:Kiss Me Darling.
B:O'Neill's 920
Z:Transcribed by Tom Keays (htkeays@mailbox.syr.edu)
Z:abc 1.6
M:6/8
R:Jig
L:1/8
K:D
d2e f2d|g2e f2d|d2e fed|cec ABc|
d2e f2d|g2e f2d|fga gec|dAF D2 :|
||g|fed dc2B|A2A A2g|fed c2A|GEF G2g|
fed cBA|AFG A2g|fga ABc|dAF D2 :|
